X: 22822
T: Lapwings
R: reel
M: 4/4
K: Gmixolydian
Hc4 Hd4|:BGGF G2FG|G2FG GFGA|GFDF G2FG|GFGA GFDA|
BGGF G2FG|G2FG GFGA|GFDF G2FG|GFGA GFDA:|
|:c4 d4||BGGF G2FG|AGGA BGAB|AcBA BDAB|
c4 d2cA||BGGF G2FG|AGGA BGAB|1 cBGF G2FG:|2 cBGF .G2 z2||

